Obsidian-SemiLight/actions/16s/tab-new-background.svg

<svg viewBox="0 0 16 16" xmlns="http://www.w3.org/2000/svg"><path d="m2 2v12h6v-1h-5v-10h3v2h5 2v3h1v-4h-3v-2h-1-4zm9.501953 7.0019531-.478515 1.3437499-1.289063-.6132811.613281 1.2890621-1.3457029.478516 1.3457029.478516-.613281 1.289062 1.289063-.613281.478515 1.34375.476563-1.34375 1.289062.613281-.613281-1.289062 1.345703-.478516-1.345703-.478516.613281-1.2890621-1.289062.6132811z" fill="#4d4d4d"/></svg>

<svg xmlns="http://www.w3.org/2000/svg" viewBox="0 0 16 16">
  <defs id="defs3051">
    <style type="text/css" id="current-color-scheme">
      .ColorScheme-Text {
        color:#4d4d4d;
      }
      </style>
  </defs>
 <path style="fill:currentColor;fill-opacity:1;stroke:none" 
     d="M 2 2 L 2 14 L 8 14 L 8 13 L 3 13 L 3 3 L 6 3 L 6 5 L 11 5 L 13 5 L 13 8 L 14 8 L 14 4 L 11 4 L 11 2 L 10 2 L 6 2 L 2 2 z M 11.501953 9.0019531 L 11.023438 10.345703 L 9.734375 9.7324219 L 10.347656 11.021484 L 9.0019531 11.5 L 10.347656 11.978516 L 9.734375 13.267578 L 11.023438 12.654297 L 11.501953 13.998047 L 11.978516 12.654297 L 13.267578 13.267578 L 12.654297 11.978516 L 14 11.5 L 12.654297 11.021484 L 13.267578 9.7324219 L 11.978516 10.345703 L 11.501953 9.0019531 z "
     class="ColorScheme-Text"
     />
</svg>
